app/_assets/images/distributions/ubuntu.svg

<svg height="22" viewBox="0 0 98 22" width="98" xmlns="http://www.w3.org/2000/svg"><g fill="none" fill-rule="evenodd"><path d="m91.6086875.11721875c3.2209375 0 5.8320625 2.611125 5.8320625 5.8320625s-2.611125 5.83206255-5.8320625 5.83206255-5.8320625-2.61112505-5.8320625-5.83206255 2.611125-5.8320625 5.8320625-5.8320625" fill="#dd4813"/><path d="m92.9744063 3.46465625c.3348124.19284375.7634687.07871875.9563124-.257125.1935313-.33378125.0787188-.76278125-.2560937-.95596875-.3355-.1931875-.7634688-.07871875-.957.2564375-.1928437.3348125-.0787188.763125.2567813.95665625m-1.4344688 4.53028125c-.3076563 0-.5998438-.06771875-.8617812-.19009375l-.4864063.87209375c.4059687.202125.8641875.314875 1.3481875.314875.2815313 0 .554125-.03815625.8133125-.11.0460625-.281875.213125-.540375.4791875-.69471875.2664063-.15365625.5737187-.1684375.8404687-.06703125.5180313-.510125.8549063-1.203125.9044063-1.9751875l-.9985938-.01409375c-.092125 1.045-.9690312 1.86415625-2.0387812 1.86415625m0-4.093375c1.06975 0 1.9466562.81984375 2.0387812 1.8665625l.9985938-.01615625c-.0495-.771375-.386375-1.464375-.9044063-1.9738125-.26675.10003125-.5747499.0859375-.8404687-.06840625-.2657187-.15365625-.433125-.41215625-.4791875-.694375-.2591875-.07115625-.5317812-.1106875-.8133125-.1106875-.484 0-.9422188.114125-1.3481875.3155625l.4864063.87209375c.2619374-.122375.5544687-.19078125.8617812-.19078125m-2.046 2.04771875c0-.693.3430625-1.30521875.8693437-1.67509375l-.5114999-.8586875c-.6132501.40940625-1.0697501 1.0360625-1.2595001 1.769625.2220626.18046875.3626563.455125.3626563.76415625 0 .30696875-.14025.58128125-.3626563.76278125.18975.73321875.64625 1.35953125 1.2595001 1.7689375l.5114999-.858c-.5262812-.369875-.8693437-.98140625-.8693437-1.67371875m3.4804688 2.48428125c-.3355001.19215625-.449625.62115625-.2567813.95528125.1935312.33584375.6218438.44996875.957.257125.3351563-.1931875.4503125-.62184375.2567812-.95665625-.1935312-.33515625-.6221875-.44996875-.9569999-.25575m-5.0032813-3.1851875c-.3874062 0-.699875.3135-.699875.70090625 0 .38603125.3124688.70021875.699875.70021875.38775 0 .7009062-.3141875.7009062-.70021875 0-.38740625-.3131562-.70090625-.7009062-.70090625" fill="#fff"/><g fill="#000"><path d="m11.6637812 21.250625c-.5929687.1485-1.3746562.3055937-2.34643745.4723125-.9728125.1660313-2.0975625.2495625-3.37459375.2495625-1.1103125 0-2.046-.16225-2.80465625-.4857188-.75934375-.3234687-1.3701875-.7816875-1.832875-1.3743125-.463375-.592625-.796125-1.2914687-.999625-2.0972187-.2041875-.8047188-.30559375-1.6977813-.30559375-2.6795313v-8.1087187h2.58259375v7.5532187c0 1.7589688.27775 3.0177813.83325 3.7764376.5555.7600312 1.4898125 1.1391874 2.80465625 1.1391874.27809375 0 .5644375-.0099687.86109375-.0285312.295625-.0182188.5740625-.0419375.83359375-.0694375.2585-.0278438.49465625-.0553438.70778125-.0831875.21278125-.0275.36575-.0594687.4585625-.0972813v-12.1904062h2.58293755v14.023625z"/><path d="m17.9667813 19.4174063c.2595312.07425.6249375.1443749 1.0972499.2079687.4719688.0656562 1.0594376.097625 1.7630938.097625 1.3884063 0 2.4994063-.4585625 3.3319688-1.3746562.8335937-.9164375 1.2502187-2.2171875 1.2502187-3.9012188 0-.7400938-.07425-1.4344688-.2220625-2.0838125-.1485-.6472812-.389125-1.2079375-.7225625-1.6792187-.3330937-.4726563-.7638125-.8425313-1.291125-1.11100005s-1.161875-.402875-1.9019687-.402875c-.7043438 0-1.351625.121-1.9435625.36128125-.5936563.24096875-1.0467188.490875-1.36125.7500625zm0-11.55206255c.3145312-.2035.792-.41628125 1.4303437-.63834375s1.3746563-.33309375 2.2075625-.33309375c1.03675 0 1.958.18528125 2.7634063.55515625.8050625.3705625 1.4856874.88825 2.0411874 1.55478125.5548126.66653125.9759063 1.46299995 1.2632813 2.38803125.2866875.9264062.4307187 1.94425.4307187 3.05525 0 1.166-.171875 2.2171875-.5135625 3.1515-.3434062.935-.8291249 1.7259687-1.4581874 2.3742813-.62975.6479687-1.3884063 1.148125-2.2773438 1.4994375-.88825.3516562-1.8882187.5276562-2.9992187.5276562-1.2038126 0-2.2680625-.083875-3.1930938-.25025-.9257187-.1667188-1.6850625-.3334375-2.2773437-.4998125v-20.68721875l2.5825937-.44446875v7.74709375z"/><path d="m42.5146563 21.250625c-.5929688.1485-1.375.3055937-2.3464375.4723125-.9717813.1660313-2.0968751.2495625-3.37425.2495625-1.1103126 0-2.0453125-.16225-2.8043125-.4857188-.7593438-.3234687-1.3701875-.7816875-1.8325313-1.3743125-.463375-.592625-.7957812-1.2914687-.9999687-2.0972187-.2038438-.8047188-.3055938-1.6977813-.3055938-2.6795313v-8.1087187h2.58225v7.5532187c0 1.7589688.2780937 3.0177813.83325 3.7764376.5558438.7600312 1.4905 1.1391874 2.8046563 1.1391874.2784374 0 .5651249-.0099687.8610937-.0285312.2952812-.0182188.573375-.0419375.83325-.0694375.2591875-.0278438.495-.0553438.7084687-.0831875.2124375-.0275.3650626-.0594687.4575313-.0972813v-12.1904062h2.5829375v14.023625z"/><path d="m46.2354063 7.64396875c.5922812-.1485 1.3784375-.30559375 2.3605312-.47265625.980375-.166375 2.1099375-.24990625 3.3873125-.24990625 1.148125 0 2.1013438.16259375 2.86.4860625.759.32415625 1.365375.7775625 1.8194688 1.36090625.4527187.58265625.7720625 1.2818438.9576875 2.0961875.1849374.8157188.2777499 1.71325.2777499 2.6939688v8.108375h-2.5825937v-7.5532188c0-.88825-.0605-1.6469062-.1804687-2.277-.1206563-.6300937-.3193438-1.1388437-.5970938-1.5269375-.27775-.38946875-.6479687-.67134375-1.1106562-.84734375-.4626875-.1766875-1.0374375-.264-1.7211563-.264-.2787812 0-.5654687.00928125-.86075.0275-.2963125.01890625-.5795625.04159375-.847.06978125-.2695.0275-.5090937.0605-.7225625.09659375-.213125.03746875-.3654062.06496875-.4582187.0831875v12.19075005h-2.58225z"/><path d="m63.8680625 7.227h5.4704375v2.16596875h-5.4704375v6.66462505c0 .7218749.0553438 1.3199999.1667188 1.7916249.111375.4716251.2780937.8425313.4998124 1.1099688.2220626.2684687.4991251.4582187.8329063.56925.3334375.111375.721875.1674063 1.166.1674063.7954375 0 1.4255313-.0886876 1.8885625-.2650313.4623438-.1756563.7775625-.3004375.944625-.3746875l.5548125 2.1109687c-.2595313.1299375-.71775.2966563-1.3746562.4994688-.65725.2038438-1.4018125.3055938-2.2350625.3055938-.98175 0-1.7916251-.1244375-2.4303125-.3743438-.638-.2505938-1.1519063-.6245937-1.5406875-1.1250937-.3887813-.4994688-.6617188-1.1147813-.8188125-1.846625-.158125-.7308125-.2365-1.5778126-.2365-2.5406563v-12.88478125l2.5825937-.44446875z"/><path d="m83.389625 21.250625c-.5933125.1485-1.3746563.3055937-2.3464375.4723125-.9717813.1660313-2.0972187.2495625-3.3735625.2495625-1.111 0-2.046-.16225-2.8053438-.4857188-.7593437-.3234687-1.3701875-.7816875-1.8321874-1.3743125-.4633751-.592625-.7961251-1.2914687-1.0003126-2.0972187-.2035-.8047188-.3055937-1.6977813-.3055937-2.6795313v-8.1087187h2.5832812v7.5532187c0 1.7589688.27775 3.0177813.83325 3.7764376.5548125.7600312 1.4898125 1.1391874 2.8046563 1.1391874.2774062 0 .5640937-.0099687.86075-.0285312.2952813-.0182188.5730312-.0419375.8325625-.0694375.2591875-.0278438.4953438-.0553438.7084687-.0831875.2120938-.0275.3654063-.0594687.4585625-.0972813v-12.1904062h2.5825938v14.023625z"/></g></g></svg>

<?xml version="1.0" encoding="UTF-8" standalone="no"?>
<svg width="98px" height="22px" viewBox="0 0 98 22" version="1.1" xmlns="http://www.w3.org/2000/svg" xmlns:xlink="http://www.w3.org/1999/xlink" xmlns:sketch="http://www.bohemiancoding.com/sketch/ns">
    <!-- Generator: Sketch Beta 3.4 (14718) - http://www.bohemiancoding.com/sketch -->
    <title>logo - ubuntu</title>
    <desc>Created with Sketch Beta.</desc>
    <defs></defs>
    <g id="Page-1" stroke="none" stroke-width="1" fill="none" fill-rule="evenodd" sketch:type="MSPage">
        <g id="logo---ubuntu" sketch:type="MSLayerGroup">
            <path d="M91.6086875,0.11721875 C94.829625,0.11721875 97.44075,2.72834375 97.44075,5.94928125 C97.44075,9.17021875 94.829625,11.7813438 91.6086875,11.7813438 C88.38775,11.7813438 85.776625,9.17021875 85.776625,5.94928125 C85.776625,2.72834375 88.38775,0.11721875 91.6086875,0.11721875" id="Fill-1" fill="#DD4813" sketch:type="MSShapeGroup"></path>
            <path d="M92.9744063,3.46465625 C93.3092187,3.6575 93.737875,3.543375 93.9307187,3.20753125 C94.12425,2.87375 94.0094375,2.44475 93.674625,2.2515625 C93.339125,2.058375 92.9111562,2.17284375 92.717625,2.508 C92.5247813,2.8428125 92.6389062,3.271125 92.9744063,3.46465625 M91.5399375,7.9949375 C91.2322812,7.9949375 90.9400937,7.92721875 90.6781563,7.80484375 L90.19175,8.6769375 C90.5977187,8.8790625 91.0559375,8.9918125 91.5399375,8.9918125 C91.8214688,8.9918125 92.0940625,8.95365625 92.35325,8.8818125 C92.3993125,8.5999375 92.566375,8.3414375 92.8324375,8.18709375 C93.0988438,8.0334375 93.4061562,8.01865625 93.6729062,8.1200625 C94.1909375,7.6099375 94.5278125,6.9169375 94.5773125,6.144875 L93.5787187,6.13078125 C93.4865937,7.17578125 92.6096875,7.9949375 91.5399375,7.9949375 M91.5399375,3.9015625 C92.6096875,3.9015625 93.4865937,4.72140625 93.5787187,5.768125 L94.5773125,5.75196875 C94.5278125,4.98059375 94.1909375,4.28759375 93.6729062,3.77815625 C93.4061562,3.8781875 93.0981563,3.86409375 92.8324375,3.70975 C92.5667188,3.55609375 92.3993125,3.29759375 92.35325,3.015375 C92.0940625,2.94421875 91.8214688,2.9046875 91.5399375,2.9046875 C91.0559375,2.9046875 90.5977187,3.0188125 90.19175,3.22025 L90.6781563,4.09234375 C90.9400937,3.96996875 91.232625,3.9015625 91.5399375,3.9015625 M89.4939375,5.94928125 C89.4939375,5.25628125 89.837,4.6440625 90.3632812,4.2741875 L89.8517813,3.4155 C89.2385312,3.82490625 88.7820312,4.4515625 88.5922812,5.185125 C88.8143438,5.36559375 88.9549375,5.64025 88.9549375,5.94928125 C88.9549375,6.25625 88.8146875,6.5305625 88.5922812,6.7120625 C88.7820312,7.44528125 89.2385312,8.07159375 89.8517813,8.481 L90.3632812,7.623 C89.837,7.253125 89.4939375,6.64159375 89.4939375,5.94928125 M92.9744063,8.4335625 C92.6389062,8.62571875 92.5247813,9.05471875 92.717625,9.38884375 C92.9111562,9.7246875 93.3394688,9.8388125 93.674625,9.64596875 C94.0097813,9.45278125 94.1249375,9.024125 93.9314062,8.6893125 C93.737875,8.35415625 93.3092187,8.23934375 92.9744063,8.4335625 M87.971125,5.248375 C87.5837188,5.248375 87.27125,5.561875 87.27125,5.94928125 C87.27125,6.3353125 87.5837188,6.6495 87.971125,6.6495 C88.358875,6.6495 88.6720312,6.3353125 88.6720312,5.94928125 C88.6720312,5.561875 88.358875,5.248375 87.971125,5.248375" id="Fill-3" fill="#FFFFFF" sketch:type="MSShapeGroup"></path>
            <path d="M11.6637812,21.250625 C11.0708125,21.399125 10.289125,21.5562187 9.31734375,21.7229375 C8.34453125,21.8889688 7.21978125,21.9725 5.94275,21.9725 C4.8324375,21.9725 3.89675,21.81025 3.13809375,21.4867812 C2.37875,21.1633125 1.76790625,20.7050937 1.30521875,20.1124687 C0.84184375,19.5198437 0.50909375,18.821 0.30559375,18.01525 C0.10140625,17.2105312 0,16.3174687 0,15.3357187 L0,7.227 L2.58259375,7.227 L2.58259375,14.7802187 C2.58259375,16.5391875 2.86034375,17.798 3.41584375,18.5566563 C3.97134375,19.3166875 4.90565625,19.6958437 6.2205,19.6958437 C6.49859375,19.6958437 6.7849375,19.685875 7.08159375,19.6673125 C7.37721875,19.6490937 7.65565625,19.625375 7.9151875,19.597875 C8.1736875,19.5700312 8.40984375,19.5425312 8.62296875,19.5146875 C8.83575,19.4871875 8.98871875,19.4552188 9.08153125,19.4174062 L9.08153125,7.227 L11.6644688,7.227 L11.6644688,21.250625 L11.6637812,21.250625 Z" id="Fill-5" fill="#000000" sketch:type="MSShapeGroup"></path>
            <path d="M17.9667813,19.4174063 C18.2263125,19.4916563 18.5917188,19.5617812 19.0640312,19.625375 C19.536,19.6910312 20.1234688,19.723 20.827125,19.723 C22.2155313,19.723 23.3265313,19.2644375 24.1590938,18.3483438 C24.9926875,17.4319063 25.4093125,16.1311563 25.4093125,14.447125 C25.4093125,13.7070312 25.3350625,13.0126562 25.18725,12.3633125 C25.03875,11.7160313 24.798125,11.155375 24.4646875,10.6840938 C24.1315938,10.2114375 23.700875,9.8415625 23.1735625,9.57309375 C22.64625,9.304625 22.0116875,9.17021875 21.2715938,9.17021875 C20.56725,9.17021875 19.9199688,9.29121875 19.3280313,9.5315 C18.734375,9.77246875 18.2813125,10.022375 17.9667813,10.2815625 L17.9667813,19.4174063 L17.9667813,19.4174063 Z M17.9667813,7.86534375 C18.2813125,7.66184375 18.7587813,7.4490625 19.397125,7.227 C20.0354687,7.0049375 20.7717813,6.89390625 21.6046875,6.89390625 C22.6414375,6.89390625 23.5626875,7.0791875 24.3680938,7.4490625 C25.1731563,7.819625 25.8537812,8.3373125 26.4092812,9.00384375 C26.9640938,9.670375 27.3851875,10.4668437 27.6725625,11.391875 C27.95925,12.3182812 28.1032812,13.336125 28.1032812,14.447125 C28.1032812,15.613125 27.9314062,16.6643125 27.5897187,17.598625 C27.2463125,18.533625 26.7605938,19.3245937 26.1315313,19.9729063 C25.5017813,20.620875 24.743125,21.1210313 23.8541875,21.4723438 C22.9659375,21.824 21.9659688,22 20.8549688,22 C19.6511562,22 18.5869063,21.916125 17.661875,21.74975 C16.7361563,21.5830312 15.9768125,21.4163125 15.3845313,21.2499375 L15.3845313,0.56271875 L17.967125,0.11825 L17.967125,7.86534375 L17.9667813,7.86534375 Z" id="Fill-7" fill="#000000" sketch:type="MSShapeGroup"></path>
            <path d="M42.5146563,21.250625 C41.9216875,21.399125 41.1396563,21.5562187 40.1682188,21.7229375 C39.1964375,21.8889688 38.0713437,21.9725 36.7939688,21.9725 C35.6836562,21.9725 34.7486563,21.81025 33.9896563,21.4867812 C33.2303125,21.1633125 32.6194688,20.7050937 32.157125,20.1124687 C31.69375,19.5198437 31.3613438,18.821 31.1571563,18.01525 C30.9533125,17.2105312 30.8515625,16.3174687 30.8515625,15.3357187 L30.8515625,7.227 L33.4338125,7.227 L33.4338125,14.7802187 C33.4338125,16.5391875 33.7119062,17.798 34.2670625,18.5566563 C34.8229063,19.3166875 35.7575625,19.6958437 37.0717188,19.6958437 C37.3501562,19.6958437 37.6368437,19.685875 37.9328125,19.6673125 C38.2280937,19.6490937 38.5061875,19.625375 38.7660625,19.597875 C39.02525,19.5700312 39.2610625,19.5425312 39.4745312,19.5146875 C39.6869687,19.4871875 39.8395938,19.4552188 39.9320625,19.4174062 L39.9320625,7.227 L42.515,7.227 L42.515,21.250625 L42.5146563,21.250625 Z" id="Fill-9" fill="#000000" sketch:type="MSShapeGroup"></path>
            <path d="M46.2354063,7.64396875 C46.8276875,7.49546875 47.6138438,7.338375 48.5959375,7.1713125 C49.5763125,7.0049375 50.705875,6.92140625 51.98325,6.92140625 C53.131375,6.92140625 54.0845938,7.084 54.84325,7.40746875 C55.60225,7.731625 56.208625,8.18503125 56.6627188,8.768375 C57.1154375,9.35103125 57.4347813,10.0502188 57.6204063,10.8645625 C57.8053437,11.6802813 57.8981562,12.5778125 57.8981562,13.5585313 L57.8981562,21.6669063 L55.3155625,21.6669063 L55.3155625,14.1136875 C55.3155625,13.2254375 55.2550625,12.4667813 55.1350938,11.8366875 C55.0144375,11.2065938 54.81575,10.6978438 54.538,10.30975 C54.26025,9.92028125 53.8900313,9.63840625 53.4273438,9.46240625 C52.9646563,9.28571875 52.3899063,9.19840625 51.7061875,9.19840625 C51.4274063,9.19840625 51.1407188,9.2076875 50.8454375,9.22590625 C50.549125,9.2448125 50.265875,9.2675 49.9984375,9.2956875 C49.7289375,9.3231875 49.4893438,9.3561875 49.275875,9.39228125 C49.06275,9.42975 48.9104688,9.45725 48.8176563,9.47546875 L48.8176563,21.6662188 L46.2354063,21.6662188 L46.2354063,7.64396875 L46.2354063,7.64396875 Z" id="Fill-11" fill="#000000" sketch:type="MSShapeGroup"></path>
            <path d="M63.8680625,7.227 L69.3385,7.227 L69.3385,9.39296875 L63.8680625,9.39296875 L63.8680625,16.0575938 C63.8680625,16.7794687 63.9234063,17.3775937 64.0347813,17.8492187 C64.1461563,18.3208438 64.312875,18.69175 64.5345937,18.9591875 C64.7566563,19.2276562 65.0337188,19.4174062 65.3675,19.5284375 C65.7009375,19.6398125 66.089375,19.6958438 66.5335,19.6958438 C67.3289375,19.6958438 67.9590313,19.6071562 68.4220625,19.4308125 C68.8844063,19.2551562 69.199625,19.130375 69.3666875,19.056125 L69.9215,21.1670937 C69.6619687,21.2970312 69.20375,21.46375 68.5468438,21.6665625 C67.8895938,21.8704063 67.1450313,21.9721563 66.3117813,21.9721563 C65.3300313,21.9721563 64.5201562,21.8477188 63.8814688,21.5978125 C63.2434688,21.3472187 62.7295625,20.9732188 62.3407813,20.4727188 C61.952,19.97325 61.6790625,19.3579375 61.5219688,18.6260938 C61.3638438,17.8952813 61.2854688,17.0482812 61.2854688,16.0854375 L61.2854688,3.20065625 L63.8680625,2.7561875 L63.8680625,7.227 L63.8680625,7.227 Z" id="Fill-13" fill="#000000" sketch:type="MSShapeGroup"></path>
            <path d="M83.389625,21.250625 C82.7963125,21.399125 82.0149687,21.5562187 81.0431875,21.7229375 C80.0714062,21.8889688 78.9459688,21.9725 77.669625,21.9725 C76.558625,21.9725 75.623625,21.81025 74.8642812,21.4867812 C74.1049375,21.1633125 73.4940937,20.7050937 73.0320938,20.1124687 C72.5687187,19.5198437 72.2359687,18.821 72.0317812,18.01525 C71.8282812,17.2105312 71.7261875,16.3174687 71.7261875,15.3357187 L71.7261875,7.227 L74.3094687,7.227 L74.3094687,14.7802187 C74.3094687,16.5391875 74.5872187,17.798 75.1427187,18.5566563 C75.6975312,19.3166875 76.6325312,19.6958437 77.947375,19.6958437 C78.2247812,19.6958437 78.5114687,19.685875 78.808125,19.6673125 C79.1034063,19.6490937 79.3811562,19.625375 79.6406875,19.597875 C79.899875,19.5700312 80.1360313,19.5425312 80.3491562,19.5146875 C80.56125,19.4871875 80.7145625,19.4552188 80.8077187,19.4174062 L80.8077187,7.227 L83.3903125,7.227 L83.3903125,21.250625 L83.389625,21.250625 Z" id="Fill-15" fill="#000000" sketch:type="MSShapeGroup"></path>
        </g>
    </g>
</svg>
